X: 769
T: the Piper's Despair   #2
R: reel
%S: s:4 b:16(4+4+4+4)
B: Francis O'Neill: "The Dance Music of Ireland" (1907) #769
Z: Frank Nordberg - http://www.musicaviva.com
F: http://www.musicaviva.com/abc/tunes/ireland/oneill-1001/0769/oneill-1001-0769-1.abc
M: C|
L: 1/8
K: G
"^A"\
|: EFGA BAFA | (3(Bcd) Ad (3(Bcd) AF | D2FD [1 ADFD | (3(Bcd) Ad (3(Bcd) AF :|[2 A2FA | Beed Bee2 |]
"^B"\
|: e2(ge) bege | bege bege | defg adfd |[1 adfd adfd :|[2 (3(efg) fd ecBG |]
